!!!COM: Gomółka, Mikołaj
!!!CDT: ~1535-after 1591
!!!OTL: Boże, czemuś mię
!!!OTL@LAT: Deus, Deus meus
!!!AGn: Motet; Psalm
!!!SCn: Gom2022
!!!SCn: Gom2022
!!!voices: 4
**kern	**kern	**kern	**kern
*staff4	*staff3	*staff2	*staff1
*Ivox	*Ivox	*Ivox	*Ivox
*I"Bassus	*I"Tenor	*I"Altus	*I"Cantus
*I'B	*I'T	*I'A	*I'C
*clefF4	*clefGv2	*clefGv2	*clefG2
*k[]	*k[]	*k[]	*k[]
*M2/1	*M2/1	*M2/1	*M2/1
*met(C|)	*met(C|)	*met(C|)	*met(C|)
=1-	=1-	=1-	=1-
1D	1f	1a	1dd
[1AA	[1e	[1a	[1cc#
=2	=2	=2	=2
2AA]	2e]	2a]	2cc#]
2A	2c	2e	2a
2E	2B	2e	2g#
[2AA	[2A	[2c#	[2a
=3	=3	=3	=3
2AA]	2A]	2c#]	2a]
2AA	2A	2e	2cc
2GG#	2B	2e	2b
2AA	2c#	2e	2a
=4	=4	=4	=4
2D	2d	2f	2a
1G	1d	2g	1b-
.	.	2G	.
2F#	2d	2A	2a
=5	=5	=5	=5
2G	1G	4B	1g
.	.	4A	.
2GG	.	4B	.
.	.	4c	.
2D	2A	2d	2f#
2D	[2d	[2f	[2a
=6	=6	=6	=6
2.A	2d]	2f]	4a]
.	.	.	4b
.	2c	2e	4cc
4G	.	.	4b
4F	2d	2f	4a
4E	.	.	4g
2D	2f	2f	2a
=7	=7	=7	=7
1E	2.e	1g	2g
.	.	.	4cc
.	4d	.	4b
2F	2c	2f	4a
.	.	.	8gL
.	.	.	8aJ
2D	2d	2f	4b
.	.	.	[4a
=8	=8	=8	=8
1E	2c	2.e	4a]
.	.	.	8g#iL
.	.	.	8f#iJ
.	2B	.	4a
.	.	4d	4g#
1AA	1A	1c#	1a
=9	=9	=9	=9
1A	1e	1a	1cc#
2F#	2d	2a	2dd
[2G	2d	[2g	2dd
=10	=10	=10	=10
2G]	1d	2g]	1b-
2GG	.	2g	.
2.D	2d	2f#	2a
.	2A	2d	[2a
4E	.	.	.
=11	=11	=11	=11
2F#	2A	2d	2a]
1G	2B	1d	2g
.	2G	.	2b
2F#	2A	[2d	2a
=12	=12	=12	=12
2G	2B	2d]	1g
2E	2G	2c#	.
2D	2A	2d	2f#
2D	2d	2f#	2a
=13	=13	=13	=13
2G	2d	2g	2b
2E	2e	2g	2cc#
2D	2f#	2a	1dd
[2G	[2g	[2d	.
=14	=14	=14	=14
2G]	2g]	2d]	2b
2C	2e	2e	2cc
2D	2f	4d	2a
.	.	4c	.
2E	2e	2B	2g#
=15	=15	=15	=15
2F	2c	2A	1a
2D	2d	2f	.
1E	1B	1e	1g#
=16	=16	=16	=16
0AA	0c#	0e	0a
==	==	==	==
*-	*-	*-	*-
!!!CNT: Polish
!!!OCY: Poland
!!!LYR: Jan Kochanowski (1530-1584/08/22)
!!!GTL: Melodiae na Psałterz Polski
!!!EFL: 22/150
!!!PPR: Łazarz Andrysowicz
!!!PPP: Kraków
!!!PDT: 1580
!!!YEC: 2015 Marcin Konik
!!!ENC: Marcin Konik
!!!END: 2015/05/19
!!!EED: Marcin Konik
!!!EEV: 2015/05/19
!!!ONB: Translated from MusicXML and edited on 2015/03/06 by Marcin Konik
!!!CharacterEncoding: utf-8
!!muse2ps: i2I150v85,85,85,150Q16
!!title: @{OTL}, @{GTL}, ed. @{ENC}
